X:1
T:Och fast du svikit din flickas tro
T:August Söderman (1832-1876)
T:Och fast du svikit din flickas tro
T:©PA Aglert Edition may be freely distributed, duplicated, performed and recorded
T:©PA Aglert Edition may be freely distributed, duplicated, performed and recorded
T:©PA Aglert Edition may be freely distributed, duplicated, performed and recorded
T:©PA Aglert Edition may be freely distributed, duplicated, performed and recorded
C:August Söderman (1832-1876)
Z:©PA Aglert
Z:Edition may be freely distributed, duplicated, performed and recorded
%%score [ 1 ( 2 3 ) 4 5 ]
L:1/8
Q:1/4=100
M:6/8
K:Emin
V:1 treble nm="S"
V:2 treble nm="A"
V:3 treble 
V:4 treble-8 nm="T"
V:5 bass nm="B"
V:1
"^Andante" z | z6 | z2 z z2!p! G |!<(! (GF)E!<)!{/F} E^DE |!>(! G F2-!>)! F z z | z6 | %6
w: ||Så|skall _ hon ald- rig dig|glöm- ma. _||
w: ||Och|kall _ som dö- den ditt|hjär- ta, _||
 z2 z z2!p! G |!<(! F2 F!<)! d^cB |!>(! ^A3!>)! B z!mf! B | B2 B BAG |!<(! (^EF)A!<)! d2 z | %11
w: Så|skall hon ic- ke dig|dö- ma. När|tu- sen bil- der i|li- * vets storm,|
w: I|vå- rens fär- ger de|bjär- ta, Och|vor' du ha- tad och|glömd _ och arm,|
 ^c3 (^A^G)F |!>(! F3-!>)! F z B | B2 B BAG | (^EF)G A2 A | B2 F"^cresc."{/B} A>GA | B3 A z!ff! A | %17
w: i li- * vets|storm _ för|hen- ne väx- la ges-|talt _ och form, Din|bild hon en- sam skall|göm- ma, din|
w: och glömd _ och|arm, _ så|står du äls- kad och|rik _ och varm i|dju- pet dock av min|smär- ta, i|
 B2 F{/B} A>"^rall.""^rall.""^rall.""^rall."GA | !fermata!B3 B !fermata!z z | z6 | z2 z z2!p! G | %21
w: bild hon en- sam skall|göm- ma.||Så|
w: dju- pet dock av min|smär- ta.||Och|
 (GF)E!<(! E^D!<)!E | B3 G z!f! B | eBG BEE |"^rit."!>(! E2 E!>)! !fermata!E2!p! E | %25
w: skall _ hon ald- rig dig|glöm- ma. Och|fast- än du stört hen- nes|hjär- tas ro, Så|
w: kall _ som dö- den ditt|hjär- ta, Så|står du dock ljus för mitt|min- nes skatt, I|
 E2 E"^r a l l e n t a n d o" GFE | B6 | B6- | B2 z z3 |] %29
w: skall hon ic- ke dig|dö-|ma.|_|
w: vå- rens fär- ger de|bjär-|ta,|_|
V:2
 z | z6 | z2 z z2!p! E |!<(! C2 B,!<)! ^A,A,A, |!>(! B, ^D2-!>)! D z z | z6 | z2 z z2!p! E | %7
w: ||Så|skall hon ald- rig dig|glöm- ma. _||Så|
w: ||Och|kall som dö- den ditt|hjär- ta, _||I|
!<(! D2 D!<)! FFF |!>(! (GFE)!>)! D z!mf! D | D2 D ^CCC |!<(! D2 !courtesy!=E!<)! D2 z | E3 E2 E | %12
w: skall hon ic- ke dig|dö- * * ma. När|tu- sen bil- der i|li- vets storm,|i li- vets|
w: vå- rens fär- ger de|bjär- * * ta, Och|vor' du ha- tad och|glömd och arm,|och glömd och|
!>(! (ED^C!>)! D) z D | D2 D ^CCC | D2 D D2 E | ^D2 D"^cresc." E>EE | ^D3 E z!ff! E | F2 F F>EE | %18
w: storm _ _ _ för|hen- ne väx- la ges-|talt och form, Din|bild hon en- sam skall|göm- ma, din|bild hon en- sam skall|
w: arm, _ _ _ så|står du äls- kad och|rik och varm i|dju- pet dock av min|smär- ta, i|dju- pet dock av min|
 !fermata!F3 F !fermata!z z | z6 | z2 z z2!p! E | C2 B,!<(! ^A,A,!<)!A, | B,3 E z!f! G | %23
w: göm- ma.||Så|skall hon ald- rig dig|glöm- ma. Och|
w: smär- ta.||Och|kall som dö- den ditt|hjär- ta, Så|
 GFE ^DEB, |!>(! ^A,2 B,!>)! !fermata!^C2!p! C | B,2 B, E^DE | (B3 G2 F) | E6- | E2 z z3 |] %29
w: fast- än du stört hen- nes|hjär- tas ro, Så|skall hon ic- ke dig|dö- * *|ma.|_|
w: står du dock ljus för mitt|min- nes skatt, I|vå- rens fär- ger de|bjär- * *|ta,|_|
V:3
 x | x6 | x6 | x6 | x6 | x6 | x6 | x6 | x6 | x6 | x6 | x6 | x6 | x6 | x6 | x6 | x6 | x6 | x6 | x6 | %20
 x6 | x6 | x6 | x6 | x6 | x6 | (E3 ^D3) | x6 | x6 |] %29
V:4
{/B} B, | (EG)A B>AB | c2 e B2!p! B |!<(! A2 G!<)! GFG |!>(! A A2-!>)! A z{/B} B, | (EG)A B>AB | %6
w: Och|fast _ du svi- kit din|flic- kas tro, Så|skall hon ald- rig dig|glöm- ma. _ Och|fast _ du stört hen- nes|
w: Och|vor' _ du mörk som en|vin- ter- natt, Och|kall som dö- den ditt|hjär- ta, _ Så|står _ du ljus för mitt|
 c2 e B2!p! B |!<(! B2 B!<)! Bed |!>(! ^c3!>)! d z!mf! G | G2 G AAA |!<(! A2 G!<)! F2 z | %11
w: hjär- tas ro, Så|skall hon ic- ke dig|dö- ma. När|tu- sen bil- der i|li- vets storm,|
w: min- nes skatt, I|vå- rens fär- ger de|bjär- ta, Och|vor' du ha- tad och|glömd och arm,|
 ^A3 (cB)A |!>(! B3-!>)! B z B | G2 G AAA | A2 G F2 F | F2 F"^cresc." F>EF | F3 F z!ff! f | %17
w: i li- * vets|storm _ för|hen- ne väx- la ges-|talt och form, Din|bild hon en- sam skall|göm- ma, din|
w: och glömd _ och|arm, _ så|står du äls- kad och|rik och varm i|dju- pet dock av min|smär- ta, i|
 ^d2 d e>ee | !fermata!e3 ^d !fermata!z{/B} B, |!<(! (EG)A B>A!<)!B | c2 e B2!p! B | %21
w: bild hon en- sam skall|göm- ma. Och|fast _ du svi- kit din|flic- kas tro, Så|
w: dju- pet dock av min|smär- ta. Och|vor' _ du mörk som en|vin- ter- natt, Och|
 A2 G!<(! GF!<)!G | G3 B z!f! B | cBB BBG |!>(! G2 G!>)! !fermata!G2!p! G | G2 G BAG | (G3 A3) | %27
w: skall hon ald- rig dig|glöm- ma. Och|fast- än du stört hen- nes|hjär- tas ro, Så|skall hon ic- ke dig|dö- *|
w: kall som dö- den ditt|hjär- ta, Så|står du dock ljus för mitt|min- nes skatt, I|vå- rens fär- ger de|bjär- *|
 G6- | G2 z z3 |] %29
w: ma.|_|
w: ta,|_|
V:5
 z | z6 | z2 z z2!p! E, |!<(! E,2 E,!<)! C,C,C, |!>(! B,, B,,2-!>)! B,, z z | z6 | z2 z z2!p! E, | %7
w: ||Så|skall hon ald- rig dig|glöm- ma. _||Så|
w: ||Och|kall som dö- den ditt|hjär- ta, _||I|
!<(! F,3-!<)! F,2 F, |!>(! F,3!>)! (B,!courtesy!=A,)!mf!G, | (E,>^D,E, A,,3) |!<(! D,3-!<)! D,2 z | %11
w: skall _ hon|ic- ke _ dig|dö- * * *|ma. _|
w: vå- * rens|fär- ger _ de|bjär- * * *|ta, _|
 (F,>^E,F,) F,2 F, |!>(! (B,,3!>)! B,)!courtesy!=A,!courtesy!=G, | (E,>^D,E,) A,,3 | %14
w: När _ _ tu- sen|bil- * der i|li- * * vets|
w: Och _ _ vor' du|ha- * tad och|glömd _ _ och|
 D,2 D, D,2 C, | B,,B,,B,,"^cresc." C,2 C, | (B,,3 C,) z!ff! C | B,2 B, C>CC | %18
w: storm, för hen- ne|väx- la ges- talt och|form, _ din|bild hon en- sam skall|
w: arm, så står du|äls- kad och rik och|varm _ i|dju- pet dock av min|
 !fermata!B,3 B, !fermata!z z | z6 | z2 z z2!p! E, | E,2 E,!<(! C,C,!<)!C, | B,,3 B,, z!f! E, | %23
w: göm- ma.||Så|skall hon ald- rig dig|glöm- ma. Och|
w: smär- ta.||Och|kall som dö- den ditt|hjär- ta, Så|
 C,D,E, F,G,E, |!>(! C,2 B,,!>)! !fermata!^A,,2!p! A,, | B,,2 B,, B,,B,,B,, | B,,6 | E,6- | %28
w: fast- än du stört hen- nes|hjär- tas ro, Så|skall hon ic- ke dig|dö-|ma.|
w: står du dock ljus för mitt|min- nes skatt, I|vå- rens fär- ger de|bjär-|ta,|
 E,2 z z3 |] %29
w: _|
w: _|

